icons/mobile/72/svg/tab-group-72.svg

<svg width="72" height="72" viewBox="0 0 72 72" fill="none" xmlns="http://www.w3.org/2000/svg">
<path fill-rule="evenodd" clip-rule="evenodd" d="M20.5 39C21.9864 39 24.1305 39.1181 26.6416 39.6816C30.3475 40.5145 33 43.8059 33 47.6172V55.3828C33 59.2041 30.343 62.4845 26.6348 63.3174L26.6357 63.3184C24.8687 63.7157 22.8038 63.999 20.5 63.999C19.0136 63.999 16.8704 63.8809 14.3594 63.3174C10.6535 62.4845 8 59.1931 8 55.3818V47.6162C8 43.7951 10.6563 40.5148 14.3643 39.6816C16.1313 39.2843 18.1962 39 20.5 39ZM20.5 44.25C18.862 44.25 17.3733 44.4263 16.0654 44.6865L15.5156 44.8027C14.1839 45.1018 13.25 46.2715 13.25 47.6162V55.3818C13.25 56.7239 14.1867 57.8965 15.5078 58.1943C17.5507 58.6528 19.2944 58.749 20.5 58.749C22.3721 58.749 24.0494 58.5189 25.4844 58.1963L25.7295 58.1299C26.9295 57.7501 27.75 56.6435 27.75 55.3828V47.6172C27.75 46.2747 26.813 45.1011 25.4912 44.8037C23.4483 44.3453 21.7056 44.25 20.5 44.25Z" fill="black"/>
<path fill-rule="evenodd" clip-rule="evenodd" d="M51.5 39C52.9864 39 55.1305 39.1181 57.6416 39.6816C61.3475 40.5145 64 43.8059 64 47.6172V55.3828C64 59.0848 61.5069 62.2802 57.9795 63.2334L57.6357 63.3184C55.8687 63.7157 53.8038 63.999 51.5 63.999C50.0136 63.999 47.8704 63.8809 45.3594 63.3174C41.6535 62.4845 39 59.1931 39 55.3818V47.6162C39 43.7951 41.6563 40.5148 45.3643 39.6816C47.1313 39.2843 49.1962 39 51.5 39ZM51.5 44.25C49.862 44.25 48.3733 44.4263 47.0654 44.6865L46.5156 44.8027C45.1839 45.1018 44.25 46.2715 44.25 47.6162V55.3818C44.25 56.7239 45.1867 57.8965 46.5078 58.1943C48.5507 58.6528 50.2944 58.749 51.5 58.749C53.3721 58.749 55.0494 58.5189 56.4844 58.1963L56.7295 58.1299C57.9295 57.7501 58.75 56.6435 58.75 55.3828V47.6172C58.75 46.2747 57.813 45.1011 56.4912 44.8037C54.4483 44.3453 52.7056 44.25 51.5 44.25Z" fill="black"/>
<path fill-rule="evenodd" clip-rule="evenodd" d="M20.5 8.00098C21.9864 8.00098 24.1305 8.11908 26.6416 8.68262C30.3455 9.51504 33 12.8009 33 16.6152V23.5C33 27.9644 30.5671 31.4351 26.6348 32.3184L26.6357 32.3193C24.8687 32.7167 22.8038 33 20.5 33C18.4831 33 16.6502 32.7816 15.041 32.4619L14.3652 32.3193C10.6553 31.4864 8 28.2046 8 24.3838V16.6172C8.00001 12.7961 10.6563 9.51574 14.3643 8.68262C16.1313 8.2853 18.1962 8.00098 20.5 8.00098ZM20.5 13.251C18.862 13.251 17.3733 13.4273 16.0654 13.6875L15.5156 13.8037C14.1839 14.1028 13.25 15.2725 13.25 16.6172V24.3838C13.25 25.7288 14.1828 26.897 15.5146 27.1963L16.0645 27.3125C17.3738 27.5726 18.8627 27.75 20.5 27.75C22.3721 27.75 24.0494 27.5199 25.4844 27.1973L25.6924 27.1416C26.7324 26.8208 27.75 25.8211 27.75 23.5V16.6152C27.75 15.2738 26.8149 14.1025 25.4912 13.8047C23.4483 13.3462 21.7056 13.251 20.5 13.251Z" fill="black"/>
<path fill-rule="evenodd" clip-rule="evenodd" d="M51.5 8C52.9864 8 55.1305 8.1181 57.6416 8.68164C61.3475 9.51451 64 12.8059 64 16.6172V24.3828C64 28.0848 61.5069 31.2802 57.9795 32.2334L57.6357 32.3184C55.8687 32.7157 53.8038 32.999 51.5 32.999C49.4831 32.999 47.6502 32.7806 46.041 32.4609L45.3652 32.3184C41.6553 31.4854 39 28.2036 39 24.3828V16.6162C39 12.7951 41.6563 9.51477 45.3643 8.68164C47.1313 8.28432 49.1962 8 51.5 8ZM51.5 13.25C49.862 13.25 48.3733 13.4263 47.0654 13.6865L46.5156 13.8027C45.1839 14.1018 44.25 15.2715 44.25 16.6162V24.3828C44.25 25.7278 45.1828 26.8961 46.5146 27.1953L47.0645 27.3115C48.3738 27.5716 49.8627 27.749 51.5 27.749C53.3721 27.749 55.0494 27.5189 56.4844 27.1963L56.7295 27.1299C57.9295 26.7501 58.75 25.6435 58.75 24.3828V16.6172C58.75 15.2747 57.813 14.1011 56.4912 13.8037C54.4483 13.3453 52.7056 13.25 51.5 13.25Z" fill="black"/>
</svg>

<!-- This Source Code Form is subject to the terms of the Mozilla Public
   - License, v. 2.0. If a copy of the MPL was not distributed with this
   - file, You can obtain one at http://mozilla.org/MPL/2.0/. -->
<svg xmlns="http://www.w3.org/2000/svg" width="72" height="72" fill="none" viewBox="0 0 72 72">
    <path fill="#000" fill-rule="evenodd" d="M20.5 39c1.486 0 3.63.118 6.142.682A8.14 8.14 0 0 1 33 47.617v7.766a8.135 8.135 0 0 1-6.365 7.934v.001a28 28 0 0 1-12.276 0A8.14 8.14 0 0 1 8 55.381v-7.766a8.135 8.135 0 0 1 6.364-7.934A28 28 0 0 1 20.5 39m0 5.25a22.7 22.7 0 0 0-4.435.437l-.55.116a2.89 2.89 0 0 0-2.265 2.813v7.766a2.89 2.89 0 0 0 2.258 2.812 22.7 22.7 0 0 0 9.977.002l.245-.066a2.88 2.88 0 0 0 2.02-2.747v-7.766a2.89 2.89 0 0 0-2.259-2.813 22.8 22.8 0 0 0-4.991-.554m31-5.25c1.486 0 3.63.118 6.142.682A8.14 8.14 0 0 1 64 47.617v7.766a8.134 8.134 0 0 1-6.02 7.85l-.344.085a28 28 0 0 1-12.277 0A8.14 8.14 0 0 1 39 55.381v-7.766a8.135 8.135 0 0 1 6.364-7.934A28 28 0 0 1 51.5 39m0 5.25a22.7 22.7 0 0 0-4.435.437l-.55.116a2.89 2.89 0 0 0-2.265 2.813v7.766a2.89 2.89 0 0 0 2.258 2.812 22.7 22.7 0 0 0 9.977.002l.245-.066a2.88 2.88 0 0 0 2.02-2.747v-7.766a2.89 2.89 0 0 0-2.259-2.813 22.8 22.8 0 0 0-4.991-.554m-31-36.249c1.486 0 3.63.118 6.142.682A8.14 8.14 0 0 1 33 16.615V23.5c0 4.464-2.433 7.935-6.365 8.818v.001a28 28 0 0 1-11.594.143l-.676-.143A8.135 8.135 0 0 1 8 24.384v-7.767a8.135 8.135 0 0 1 6.364-7.934A28 28 0 0 1 20.5 8m0 5.25a22.7 22.7 0 0 0-4.435.437l-.55.116a2.89 2.89 0 0 0-2.265 2.813v7.767c0 1.345.933 2.513 2.265 2.812l.55.116a22.75 22.75 0 0 0 9.42-.115l.207-.055c1.04-.321 2.058-1.32 2.058-3.642v-6.885a2.89 2.89 0 0 0-2.259-2.81 22.8 22.8 0 0 0-4.991-.554M51.5 8c1.486 0 3.63.118 6.142.682A8.14 8.14 0 0 1 64 16.617v7.766a8.134 8.134 0 0 1-6.02 7.85l-.344.085a28 28 0 0 1-11.595.143l-.676-.143A8.135 8.135 0 0 1 39 24.383v-7.767a8.135 8.135 0 0 1 6.364-7.934A28 28 0 0 1 51.5 8m0 5.25a22.7 22.7 0 0 0-4.435.437l-.55.116a2.89 2.89 0 0 0-2.265 2.813v7.767c0 1.345.933 2.513 2.265 2.812l.55.116a22.75 22.75 0 0 0 9.42-.115l.245-.066a2.88 2.88 0 0 0 2.02-2.747v-7.766a2.89 2.89 0 0 0-2.259-2.813 22.8 22.8 0 0 0-4.991-.554" clip-rule="evenodd" />
</svg>
